icons/svgs/location-check-outline.svg

<svg width="24" height="24" viewBox="0 0 24 24" fill="none" xmlns="http://www.w3.org/2000/svg">
<path d="M18.125 9.5C18.125 6.41406 15.5859 3.875 12.5 3.875C9.375 3.875 6.875 6.41406 6.875 9.5C6.875 10.0078 7.03125 10.75 7.46094 11.7656C7.85156 12.7031 8.4375 13.7969 9.10156 14.8906C10.2344 16.6875 11.5234 18.4062 12.5 19.6562C13.4375 18.4062 14.7266 16.6875 15.8594 14.8906C16.5234 13.7969 17.1094 12.7031 17.5 11.7656C17.9297 10.75 18.125 10.0078 18.125 9.5ZM20 9.5C20 12.9375 15.4297 18.9922 13.3984 21.5312C12.9297 22.1172 12.0312 22.1172 11.5625 21.5312C9.57031 18.9922 5 12.9375 5 9.5C5 5.35938 8.35938 2 12.5 2C16.6406 2 20 5.35938 20 9.5ZM16.9141 8.60156L11.9141 13.6016C11.5234 13.9922 10.9375 13.9922 10.5859 13.6016L8.08594 11.1016C7.69531 10.75 7.69531 10.1641 8.08594 9.8125C8.4375 9.42188 9.02344 9.42188 9.375 9.8125L11.2109 11.6484L15.5859 7.27344C15.9375 6.92188 16.5234 6.92188 16.875 7.27344C17.2656 7.66406 17.2656 8.25 16.875 8.60156H16.9141Z" fill="black"/>
</svg>

<svg xmlns="http://www.w3.org/2000/svg" width="24" height="24" fill="currentColor" class="icon-location-check-outline" viewBox="0 0 24 24">
  <mask id="a" width="15" height="20" x="5" y="2" maskUnits="userSpaceOnUse" style="mask-type:alpha">
    <path d="M18.125 9.5c0-3.086-2.54-5.625-5.625-5.625A5.626 5.626 0 0 0 6.875 9.5c0 .508.156 1.25.586 2.266.39.937.976 2.03 1.64 3.125 1.133 1.797 2.422 3.515 3.399 4.765.938-1.25 2.227-2.968 3.36-4.765.663-1.094 1.25-2.188 1.64-3.125.43-1.016.625-1.758.625-2.266M20 9.5c0 3.438-4.57 9.492-6.602 12.031a1.178 1.178 0 0 1-1.835 0C9.57 18.992 5 12.938 5 9.5 5 5.36 8.36 2 12.5 2S20 5.36 20 9.5m-3.086-.898-5 5c-.39.39-.976.39-1.328 0l-2.5-2.5a.856.856 0 0 1 0-1.29.855.855 0 0 1 1.289 0l1.836 1.836 4.375-4.375a.92.92 0 0 1 1.289 0c.39.391.39.977 0 1.329z"/>
  </mask>
  <g mask="url(#a)">
    <path d="M0 0h24v24H0z"/>
  </g>
</svg>
